X: 626
T: The Lamentation of Owen Roe O'Neill
B: O'Neill's 626
Z: 1999 by John Chambers <jc@eddie.mit.edu> http://eddie.mit.edu/~jc/music/abc/
N: "Slow"
M: C
L: 1/8
K:Gm
(GABc) d3c | (Bcd=e) f2(ef) | (gd)(dc) TB2(AG) | A2(GF) D2z2 |
| (GA)Bc d2cB | (cB)(AG) F2Ac | (B2AG) (AGAc) | B2A>G G2z2 ||
|| (GABc) d3c | Bcd=e f2ef | g2d2 (edcB) | A2TG>G F2z2 |
| (d>ed).B .c.c.c.A | (B>cB).G .A.G.F(D | B3)(G A3)(F | ~G>)FD^F G2z2 |]


